austria/municipalities/70418.svg

<?xml version="1.0" encoding="UTF-8"?>
<!DOCTYPE svg PUBLIC "-//W3C//DTD SVG 1.1//EN" "http://www.w3.org/Graphics/SVG/1.1/DTD/svg11.dtd">
<svg xmlns="http://www.w3.org/2000/svg" version="1.1" width="166px" height="192px" style="shape-rendering:geometricPrecision; text-rendering:geometricPrecision; image-rendering:optimizeQuality; fill-rule:evenodd; clip-rule:evenodd" xmlns:xlink="http://www.w3.org/1999/xlink">
<g><path style="opacity:1" fill="#120907" d="M -0.5,-0.5 C 54.8333,-0.5 110.167,-0.5 165.5,-0.5C 165.5,39.8333 165.5,80.1667 165.5,120.5C 156.737,159.596 132.737,183.263 93.5,191.5C 86.8333,191.5 80.1667,191.5 73.5,191.5C 31.3909,183.724 6.72427,158.724 -0.5,116.5C -0.5,77.5 -0.5,38.5 -0.5,-0.5 Z"/></g>
<g><path style="opacity:1" fill="#d73023" d="M 3.5,3.5 C 56.1667,3.5 108.833,3.5 161.5,3.5C 161.667,41.8348 161.5,80.1681 161,118.5C 155.517,150.975 137.35,172.809 106.5,184C 64.1589,194.007 32.3255,180.174 11,142.5C 7.41807,134.173 5.08474,125.506 4,116.5C 3.50001,78.8348 3.33335,41.1681 3.5,3.5 Z"/></g>
<g><path style="opacity:1" fill="#040100" d="M 113.5,40.5 C 101.658,51.7461 101.991,52.0794 114.5,41.5C 116.63,43.1271 118.63,44.9604 120.5,47C 112.667,54.8333 104.833,62.6667 97,70.5C 94.2179,68.2295 92.0512,65.5628 90.5,62.5C 80.6176,55.6185 73.1176,57.6185 68,68.5C 67.5026,71.146 67.3359,73.8127 67.5,76.5C 61.1222,76.7054 54.7889,76.3721 48.5,75.5C 46.2981,60.6268 50.1314,47.6268 60,36.5C 67.6777,28.413 76.511,21.913 86.5,17C 87.5,16.3333 88.5,16.3333 89.5,17C 94.3006,20.799 98.8006,24.9657 103,29.5C 102.52,32.1645 101.687,34.8312 100.5,37.5C 100.707,41.552 102.707,43.052 106.5,42C 108.305,41.028 109.972,39.8613 111.5,38.5C 112.522,38.8555 113.189,39.5222 113.5,40.5 Z"/></g>
<g><path style="opacity:1" fill="#602017" d="M 113.5,40.5 C 114.167,40.5 114.5,40.8333 114.5,41.5C 101.991,52.0794 101.658,51.7461 113.5,40.5 Z"/></g>
<g><path style="opacity:1" fill="#81261b" d="M 90.5,62.5 C 93.847,57.9686 97.847,54.4686 102.5,52C 98.9046,56.1042 94.9046,59.6042 90.5,62.5 Z"/></g>
<g><path style="opacity:1" fill="#070201" d="M 88.5,64.5 C 90.7966,66.2941 92.9633,68.2941 95,70.5C 95.3152,71.9078 94.9819,73.2411 94,74.5C 82.2376,86.766 70.071,98.4327 57.5,109.5C 51.918,109.011 49.7514,106.011 51,100.5C 63.6988,88.6331 76.1988,76.6331 88.5,64.5 Z"/></g>
<g><path style="opacity:1" fill="#060201" d="M 65.5,112.5 C 76.5396,98.9539 88.5396,86.1206 101.5,74C 108.384,72.8841 111.218,75.7174 110,82.5C 97.3333,94.5 84.6667,106.5 72,118.5C 69.9633,116.294 67.7966,114.294 65.5,112.5 Z"/></g>
<g><path style="opacity:1" fill="#040100" d="M 48.5,141.5 C 44.8056,140.967 42.639,138.967 42,135.5C 49.0596,126.939 56.8929,119.273 65.5,112.5C 67.1667,115.167 68.8333,117.833 70.5,120.5C 67.1371,122.821 64.8038,125.487 63.5,128.5C 66.5211,126.146 69.1877,123.479 71.5,120.5C 76.7545,125.151 82.4212,125.651 88.5,122C 92.6576,117.693 94.3243,112.526 93.5,106.5C 99.8692,106.347 106.203,106.68 112.5,107.5C 113.824,118.444 111.99,128.777 107,138.5C 98.245,151.208 86.9116,160.874 73,167.5C 68.3333,162.833 63.6667,158.167 59,153.5C 60.0817,149.977 60.4151,146.31 60,142.5C 59.196,141.196 58.0293,140.529 56.5,140.5C 53.7154,141.059 51.3821,142.392 49.5,144.5C 48.6143,143.675 48.281,142.675 48.5,141.5 Z"/></g>
<g><path style="opacity:1" fill="#fdfdfc" d="M -0.5,116.5 C 6.72427,158.724 31.3909,183.724 73.5,191.5C 48.8333,191.5 24.1667,191.5 -0.5,191.5C -0.5,166.5 -0.5,141.5 -0.5,116.5 Z"/></g>
<g><path style="opacity:1" fill="#fdfdfd" d="M 165.5,120.5 C 165.5,144.167 165.5,167.833 165.5,191.5C 141.5,191.5 117.5,191.5 93.5,191.5C 132.737,183.263 156.737,159.596 165.5,120.5 Z"/></g>
<g><path style="opacity:1" fill="#622017" d="M 70.5,120.5 C 70.8333,120.5 71.1667,120.5 71.5,120.5C 69.1877,123.479 66.5211,126.146 63.5,128.5C 64.8038,125.487 67.1371,122.821 70.5,120.5 Z"/></g>
<g><path style="opacity:1" fill="#82271b" d="M 48.5,141.5 C 51.5162,137.298 55.1828,134.131 59.5,132C 56.2365,135.773 52.5698,138.94 48.5,141.5 Z"/></g>
</svg>

<svg xmlns="http://www.w3.org/2000/svg" width="166" height="192" style="shape-rendering:geometricPrecision;text-rendering:geometricPrecision;image-rendering:optimizeQuality;fill-rule:evenodd;clip-rule:evenodd"><path style="opacity:1" fill="#120907" d="M-.5-.5h166v121c-8.763 39.096-32.763 62.763-72 71h-20c-42.11-7.776-66.776-32.776-74-75V-.5z"/><path style="opacity:1" fill="#d73023" d="M3.5 3.5h158c.167 38.335 0 76.668-.5 115-5.483 32.475-23.65 54.309-54.5 65.5-42.341 10.007-74.174-3.826-95.5-41.5a93.87 93.87 0 0 1-7-26c-.5-37.665-.667-75.332-.5-113z"/><path style="opacity:1" fill="#040100" d="M113.5 40.5c-11.842 11.246-11.509 11.58 1 1a46.117 46.117 0 0 1 6 5.5L97 70.5c-2.782-2.27-4.949-4.937-6.5-8-9.882-6.882-17.382-4.882-22.5 6a32.437 32.437 0 0 0-.5 8 111.86 111.86 0 0 1-19-1c-2.202-14.873 1.631-27.873 11.5-39 7.678-8.087 16.511-14.587 26.5-19.5 1-.667 2-.667 3 0A119.2 119.2 0 0 1 103 29.5c-.48 2.664-1.313 5.331-2.5 8 .207 4.052 2.207 5.552 6 4.5a26.078 26.078 0 0 0 5-3.5c1.022.355 1.689 1.022 2 2z"/><path style="opacity:1" fill="#602017" d="M113.5 40.5c.667 0 1 .333 1 1-12.509 10.58-12.842 10.246-1-1z"/><path style="opacity:1" fill="#81261b" d="M90.5 62.5c3.347-4.531 7.347-8.031 12-10.5-3.595 4.104-7.595 7.604-12 10.5z"/><path style="opacity:1" fill="#070201" d="M88.5 64.5a54.554 54.554 0 0 1 6.5 6c.315 1.408-.018 2.741-1 4a598.51 598.51 0 0 1-36.5 35c-5.582-.489-7.749-3.489-6.5-9a1927.3 1927.3 0 0 0 37.5-36z"/><path style="opacity:1" fill="#060201" d="M65.5 112.5c11.04-13.546 23.04-26.38 36-38.5 6.884-1.116 9.718 1.717 8.5 8.5l-38 36a54.538 54.538 0 0 0-6.5-6z"/><path style="opacity:1" fill="#040100" d="M48.5 141.5c-3.694-.533-5.861-2.533-6.5-6 7.06-8.561 14.893-16.227 23.5-23l5 8c-3.363 2.321-5.696 4.987-7 8a45.415 45.415 0 0 0 8-8c5.254 4.651 10.921 5.151 17 1.5 4.158-4.307 5.824-9.474 5-15.5 6.37-.153 12.703.18 19 1 1.324 10.944-.51 21.277-5.5 31-8.755 12.708-20.088 22.374-34 29l-14-14c1.082-3.523 1.415-7.19 1-11-.804-1.304-1.97-1.971-3.5-2-2.785.559-5.118 1.892-7 4-.886-.825-1.219-1.825-1-3z"/><path style="opacity:1" fill="#fdfdfc" d="M-.5 116.5c7.224 42.224 31.89 67.224 74 75h-74v-75z"/><path style="opacity:1" fill="#fdfdfd" d="M165.5 120.5v71h-72c39.237-8.237 63.237-31.904 72-71z"/><path style="opacity:1" fill="#622017" d="M70.5 120.5h1a45.415 45.415 0 0 1-8 8c1.304-3.013 3.637-5.679 7-8z"/><path style="opacity:1" fill="#82271b" d="M48.5 141.5c3.016-4.202 6.683-7.369 11-9.5-3.264 3.773-6.93 6.94-11 9.5z"/></svg>
